X:1
T:Scapulis suis
T:Joseph Schiffels
T:Scapulis suis
T:Offertorium für den ersten Fastensonntag
T:CPDL   —   Creative Commons Attribution Non Commercial 3.0
C:Joseph Schiffels
Z:CPDL   —   Creative Commons Attribution Non Commercial 3.0
%%score [ ( 1 2 ) ( 3 4 ) ]
L:1/8
Q:1/4=80
M:4/4
K:Eb
V:1 treble-8 nm="Tenor"
V:2 treble-8 
V:3 bass nm="Bass"
V:4 bass 
V:1
"^Mäßige Bewegung"!p! G3 G G2 B2- |!<(! B2 B2 c2!<)! d2 | e8 | d2 B4!>(! A2!>)! | G3 G G4 | %5
w: Sca- pu- lis su-|* is ob- um-|bra-|bit ti- bi|Do- mi- nus,|
 z2!<(! A4 B2!<)! |!mf! (c2 e4) d2 |!>(! g4!>)! f2 de |!<(!!>(! f8!<)!!>)! | f6 z2 | %10
w: et sub|pen- * nis|e- jus spe- *|ra-|bis:|
!f! (g3 f)!>(! e2 d2!>)! | c4 B2 e2 | d2!mf! (e6 | c4) B2 B2 |[Q:1/4=76]"^ritard." (G2 B2 c4) | %15
w: scu- * to cir-|cum- da- bit|te ve-|* ri- tas|e- * *|
 !fermata!B8 |] %16
w: jus.|
V:2
 E3 E E2 F2- | F2 G2 G2 A2 | (B4 c2 A2) | B2 G4 F2 | =E3 E E4 | x2 F4 G2 | (A2 G2 A2) B2 | %7
w: |||||||
 (B2 ed) c2 B2 | c8 | d6 x2 | (e3 d) c2 B2 | A4 G2 =A2 | B2 (G4 B2- | B2 AG) F2 F2 | (E2 FG A4 | %15
w: |||||||e- * * *|
 A2 GF) !fermata!G4 |] %16
w: * * * jus.|
V:3
!p! E,3 E, E,4 | D,2 E,2 E,2 F,2 | (G,6 E,2) | F,2 E,4 F,2 | C,3 C, C,4 | z2 F,4 E,2 | %6
w: |su- is * *|||||
!mf! E,6 F,2 | (G,2 B,2) =A,2 B,2 | (B,2 =A,G, A,4) | B,6 z2 |!f! B,4 G,2 B,2 | (E,3 F,) G,2 E,2 | %12
w: ||||||
 F,2!mf! E,6- | E,4 E,2 D,2 | (E,2 D,2 E,4) | !fermata!E,8 |] %16
w: ||e- * *|jus.|
V:4
 E,3 E, C,2 B,,2- | B,,2 E,2 C,2 B,,2 | (E,4 C,4) | B,,2 E,4 F,2 | C,3 C, C,4 | x2 F,4 E,2 | %6
 (A,,2 C,4) B,,2 | E,4 F,2 G,2 | F,8 | B,,6 x2 | (E,2 B,,2) C,2 G,,2 | A,,B,,C,D, E,2 C,2 | %12
 B,,2 (E,2 C,2 G,,2) | A,,4 B,,2 B,,2 | (C,2 B,,2 A,,4) | E,,8 |] %16

